public/w3gpt-logo.svg

<svg width="318" height="48" viewBox="0 0 318 48" fill="none" xmlns="http://www.w3.org/2000/svg"><path d="m124.608 16.128 5.856 13.392-.864.096 5.472-13.488h4.368L130.32 37.2l-6.384-13.632-5.808 13.632-9.216-21.072h4.368l6.192 14.016-1.536-.288 4.416-10.272-1.584-3.456zM161.32 4.416 152.872 18l-2.784-1.296a4.8 4.8 0 0 1 1.392-.48 8.3 8.3 0 0 1 1.536-.144 10.4 10.4 0 0 1 3.456.384 8.3 8.3 0 0 1 3.024 1.584q1.344 1.104 2.112 2.928.816 1.824.816 4.512 0 3.36-1.536 5.808a10.56 10.56 0 0 1-4.08 3.792q-2.496 1.296-5.568 1.296-2.304 0-4.608-.912-2.256-.96-3.744-2.496l2.352-3.84q.912 1.056 2.496 1.92 1.632.864 3.36.864 1.824 0 3.264-.816a6.03 6.03 0 0 0 2.352-2.304q.912-1.536.912-3.552 0-2.784-1.632-4.368-1.584-1.584-4.368-1.584-1.392 0-2.352.24-.96.192-1.728.48l-.144-.192 7.44-11.568 1.44.624h-11.568V4.416zm17.589 41.424q-2.208 0-3.888-.528a11.2 11.2 0 0 1-3.072-1.392 22 22 0 0 1-2.592-2.064l2.592-3.024q1.584 1.488 3.216 2.304t3.648.816q2.256 0 3.792-.768 1.584-.72 2.4-2.064.816-1.296.816-3.024l.048-5.376.384.864q-.864 2.064-3.12 3.504-2.256 1.392-5.472 1.392a9.57 9.57 0 0 1-5.04-1.392q-2.256-1.392-3.648-3.744-1.344-2.4-1.344-5.376 0-3.12 1.44-5.472 1.44-2.4 3.792-3.792t5.136-1.392q2.64 0 4.8 1.104 2.208 1.056 3.216 2.736l-.24.816.48-3.84h4.08v20.016q0 2.688-1.392 4.896t-3.936 3.504-6.096 1.296m-6.816-19.968q0 1.92.912 3.504a6.8 6.8 0 0 0 2.448 2.496q1.584.912 3.504.912 1.776 0 3.168-.624 1.44-.672 2.4-1.776a6.7 6.7 0 0 0 1.344-2.64v-3.936a6.1 6.1 0 0 0-1.44-2.496 6.7 6.7 0 0 0-2.4-1.68q-1.392-.624-3.072-.624-1.92 0-3.504.864-1.536.864-2.448 2.448-.912 1.536-.912 3.552m37.663 10.608q-2.256 0-4.368-1.056-2.064-1.056-3.216-2.832l.288-1.392v14.352h-4.416V15.84h3.84l.624 5.088-.48-1.392q1.44-1.824 3.648-3.024t4.944-1.2q2.784 0 4.992 1.344 2.256 1.344 3.552 3.744t1.296 5.616-1.392 5.568a9.6 9.6 0 0 1-3.84 3.648q-2.4 1.248-5.472 1.248m-.864-3.552q1.92 0 3.504-.864a7.06 7.06 0 0 0 2.592-2.448q.96-1.584.96-3.552 0-2.016-.912-3.552a6.8 6.8 0 0 0-2.448-2.496q-1.488-.912-3.36-.912-1.728 0-3.12.672a6.3 6.3 0 0 0-2.304 1.872q-.912 1.152-1.296 2.688v3.312a6 6 0 0 0 1.152 2.736q.912 1.2 2.256 1.872 1.392.672 2.976.672m19.525-25.536h4.464v8.832h5.472v3.504h-5.472V36h-4.464V19.728h-3.648v-3.504h3.648zm13.074 26.064q0-1.056.768-1.776.816-.768 1.776-.768.864 0 1.632.768.816.72.816 1.776 0 1.152-.816 1.872-.768.672-1.632.672-.96 0-1.776-.672-.768-.72-.768-1.872m18.575 3.024q-2.784 0-5.088-1.2-2.256-1.2-3.6-3.504-1.296-2.352-1.296-5.712 0-3.312 1.392-5.712 1.392-2.448 3.696-3.744 2.352-1.296 5.136-1.296t4.704 1.296q1.92 1.248 2.928 2.976l-.288.768.432-4.224h4.128V36h-4.464v-5.184l.48 1.152q-.192.48-.864 1.248-.624.72-1.728 1.488-1.056.768-2.448 1.296-1.392.48-3.12.48m1.2-3.696q1.68 0 3.024-.624a5.9 5.9 0 0 0 2.208-1.728q.912-1.152 1.248-2.736v-3.888a5.9 5.9 0 0 0-1.344-2.496 6.3 6.3 0 0 0-2.304-1.68q-1.344-.624-2.976-.624a6.4 6.4 0 0 0-3.264.864 6.64 6.64 0 0 0-2.4 2.4q-.864 1.536-.864 3.6 0 1.92.912 3.504a6.8 6.8 0 0 0 2.448 2.496 6.4 6.4 0 0 0 3.312.912m18.669-16.656h4.464V36h-4.464zm-.336-7.2q0-1.056.816-1.776.864-.72 1.872-.72t1.776.72q.816.72.816 1.776 0 1.104-.816 1.824a2.62 2.62 0 0 1-1.776.672q-1.008 0-1.872-.72-.816-.72-.816-1.776m13.483 23.184h19.44V36h-19.44zM0 4h36v8H0zm36 16h32v8H36zM20 36h32v8H20zM48 4h36v8H48z" fill="#21DA03"/></svg>

<svg width="318" height="48" viewBox="0 0 318 48" fill="none" xmlns="http://www.w3.org/2000/svg">
    <path
        d="M124.608 16.128L130.464 29.52L129.6 29.616L135.072 16.128H139.44L130.32 37.2L123.936 23.568L118.128 37.2L108.912 16.128H113.28L119.472 30.144L117.936 29.856L122.352 19.584L120.768 16.128H124.608ZM161.32 4.41599L152.872 18L150.088 16.704C150.504 16.48 150.968 16.32 151.48 16.224C151.992 16.128 152.504 16.08 153.016 16.08C154.2 16.016 155.352 16.144 156.472 16.464C157.592 16.784 158.6 17.312 159.496 18.048C160.392 18.784 161.096 19.76 161.608 20.976C162.152 22.192 162.424 23.696 162.424 25.488C162.424 27.728 161.912 29.664 160.888 31.296C159.864 32.928 158.504 34.192 156.808 35.088C155.144 35.952 153.288 36.384 151.24 36.384C149.704 36.384 148.168 36.08 146.632 35.472C145.128 34.832 143.88 34 142.888 32.976L145.24 29.136C145.848 29.84 146.68 30.48 147.736 31.056C148.824 31.632 149.944 31.92 151.096 31.92C152.312 31.92 153.4 31.648 154.36 31.104C155.352 30.56 156.136 29.792 156.712 28.8C157.32 27.776 157.624 26.592 157.624 25.248C157.624 23.392 157.08 21.936 155.992 20.88C154.936 19.824 153.48 19.296 151.624 19.296C150.696 19.296 149.912 19.376 149.272 19.536C148.632 19.664 148.056 19.824 147.544 20.016L147.4 19.824L154.84 8.256L156.28 8.88H144.712V4.41599H161.32ZM178.909 45.84C177.437 45.84 176.141 45.664 175.021 45.312C173.901 44.992 172.877 44.528 171.949 43.92C171.053 43.312 170.189 42.624 169.357 41.856L171.949 38.832C173.005 39.824 174.077 40.592 175.165 41.136C176.253 41.68 177.469 41.952 178.813 41.952C180.317 41.952 181.581 41.696 182.605 41.184C183.661 40.704 184.461 40.016 185.005 39.12C185.549 38.256 185.821 37.248 185.821 36.096L185.869 30.72L186.253 31.584C185.677 32.96 184.637 34.128 183.133 35.088C181.629 36.016 179.805 36.48 177.661 36.48C175.837 36.48 174.157 36.016 172.621 35.088C171.117 34.16 169.901 32.912 168.973 31.344C168.077 29.744 167.629 27.952 167.629 25.968C167.629 23.888 168.109 22.064 169.069 20.496C170.029 18.896 171.293 17.632 172.861 16.704C174.429 15.776 176.141 15.312 177.997 15.312C179.757 15.312 181.357 15.68 182.797 16.416C184.269 17.12 185.341 18.032 186.013 19.152L185.773 19.968L186.253 16.128H190.333V36.144C190.333 37.936 189.869 39.568 188.941 41.04C188.013 42.512 186.701 43.68 185.005 44.544C183.309 45.408 181.277 45.84 178.909 45.84ZM172.093 25.872C172.093 27.152 172.397 28.32 173.005 29.376C173.613 30.432 174.429 31.264 175.453 31.872C176.509 32.48 177.677 32.784 178.957 32.784C180.141 32.784 181.197 32.576 182.125 32.16C183.085 31.712 183.885 31.12 184.525 30.384C185.165 29.616 185.613 28.736 185.869 27.744V23.808C185.581 22.848 185.101 22.016 184.429 21.312C183.757 20.576 182.957 20.016 182.029 19.632C181.101 19.216 180.077 19.008 178.957 19.008C177.677 19.008 176.509 19.296 175.453 19.872C174.429 20.448 173.613 21.264 173.005 22.32C172.397 23.344 172.093 24.528 172.093 25.872ZM209.756 36.48C208.252 36.48 206.796 36.128 205.388 35.424C204.012 34.72 202.94 33.776 202.172 32.592L202.46 31.2V45.552H198.044V15.84H201.884L202.508 20.928L202.028 19.536C202.988 18.32 204.204 17.312 205.676 16.512C207.148 15.712 208.796 15.312 210.62 15.312C212.476 15.312 214.14 15.76 215.612 16.656C217.116 17.552 218.3 18.8 219.164 20.4C220.028 22 220.46 23.872 220.46 26.016C220.46 28.16 219.996 30.016 219.068 31.584C218.14 33.152 216.86 34.368 215.228 35.232C213.628 36.064 211.804 36.48 209.756 36.48ZM208.892 32.928C210.172 32.928 211.34 32.64 212.396 32.064C213.484 31.456 214.348 30.64 214.988 29.616C215.628 28.56 215.948 27.376 215.948 26.064C215.948 24.72 215.644 23.536 215.036 22.512C214.428 21.456 213.612 20.624 212.588 20.016C211.596 19.408 210.476 19.104 209.228 19.104C208.076 19.104 207.036 19.328 206.108 19.776C205.18 20.224 204.412 20.848 203.804 21.648C203.196 22.416 202.764 23.312 202.508 24.336V27.648C202.668 28.672 203.052 29.584 203.66 30.384C204.268 31.184 205.02 31.808 205.916 32.256C206.844 32.704 207.836 32.928 208.892 32.928ZM228.417 7.392H232.881V16.224H238.353V19.728H232.881V36H228.417V19.728H224.769V16.224H228.417V7.392ZM241.491 33.456C241.491 32.752 241.747 32.16 242.259 31.68C242.803 31.168 243.395 30.912 244.035 30.912C244.611 30.912 245.155 31.168 245.667 31.68C246.211 32.16 246.483 32.752 246.483 33.456C246.483 34.224 246.211 34.848 245.667 35.328C245.155 35.776 244.611 36 244.035 36C243.395 36 242.803 35.776 242.259 35.328C241.747 34.848 241.491 34.224 241.491 33.456ZM260.066 36.48C258.21 36.48 256.514 36.08 254.978 35.28C253.474 34.48 252.274 33.312 251.378 31.776C250.514 30.208 250.082 28.304 250.082 26.064C250.082 23.856 250.546 21.952 251.474 20.352C252.402 18.72 253.634 17.472 255.17 16.608C256.738 15.744 258.45 15.312 260.306 15.312C262.162 15.312 263.73 15.744 265.01 16.608C266.29 17.44 267.266 18.432 267.938 19.584L267.65 20.352L268.082 16.128H272.21V36H267.746V30.816L268.226 31.968C268.098 32.288 267.81 32.704 267.362 33.216C266.946 33.696 266.37 34.192 265.634 34.704C264.93 35.216 264.114 35.648 263.186 36C262.258 36.32 261.218 36.48 260.066 36.48ZM261.266 32.784C262.386 32.784 263.394 32.576 264.29 32.16C265.186 31.744 265.922 31.168 266.498 30.432C267.106 29.664 267.522 28.752 267.746 27.696V23.808C267.49 22.848 267.042 22.016 266.402 21.312C265.762 20.576 264.994 20.016 264.098 19.632C263.202 19.216 262.21 19.008 261.122 19.008C259.938 19.008 258.85 19.296 257.858 19.872C256.866 20.448 256.066 21.248 255.458 22.272C254.882 23.296 254.594 24.496 254.594 25.872C254.594 27.152 254.898 28.32 255.506 29.376C256.114 30.432 256.93 31.264 257.954 31.872C258.978 32.48 260.082 32.784 261.266 32.784ZM279.935 16.128H284.399V36H279.935V16.128ZM279.599 8.928C279.599 8.224 279.871 7.632 280.415 7.152C280.991 6.672 281.615 6.43199 282.287 6.43199C282.959 6.43199 283.551 6.672 284.063 7.152C284.607 7.632 284.879 8.224 284.879 8.928C284.879 9.664 284.607 10.272 284.063 10.752C283.551 11.2 282.959 11.424 282.287 11.424C281.615 11.424 280.991 11.184 280.415 10.704C279.871 10.224 279.599 9.632 279.599 8.928ZM293.082 32.112H312.522V36H293.082V32.112Z"
        fill="#21DA03" />
    <rect y="3.99994" width="36" height="8" fill="#21DA03" />
    <rect x="36" y="20.0001" width="32" height="8" fill="#21DA03" />
    <rect x="19.9999" y="36" width="32" height="8" fill="#21DA03" />
    <rect x="48" y="3.99994" width="36" height="8" fill="#21DA03" />
</svg>
